static/images/face-tribal-vector.svg

<svg width="521" height="573" viewBox="0 0 521 573" fill="none" xmlns="http://www.w3.org/2000/svg">
<g clip-path="url(#clip0)">
<path d="M329.807 249.87C337.187 249.87 343.169 243.866 343.169 236.461C343.169 229.055 337.187 223.051 329.807 223.051C322.428 223.051 316.446 229.055 316.446 236.461C316.446 243.866 322.428 249.87 329.807 249.87Z" fill="#FEBB9F"/>
<path d="M369.784 508.352C379.323 508.352 387.056 500.591 387.056 491.018C387.056 481.445 379.323 473.684 369.784 473.684C360.245 473.684 352.511 481.445 352.511 491.018C352.511 500.591 360.245 508.352 369.784 508.352Z" fill="#FEBB9F"/>
<path d="M335.239 549.125C344.778 549.125 352.511 541.364 352.511 531.791C352.511 522.218 344.778 514.457 335.239 514.457C325.7 514.457 317.966 522.218 317.966 531.791C317.966 541.364 325.7 549.125 335.239 549.125Z" fill="#FEBB9F"/>
<path d="M286.246 573C295.785 573 303.518 565.239 303.518 555.666C303.518 546.093 295.785 538.332 286.246 538.332C276.706 538.332 268.973 546.093 268.973 555.666C268.973 565.239 276.706 573 286.246 573Z" fill="#FEBB9F"/>
<path d="M191.084 249.87C198.464 249.87 204.446 243.866 204.446 236.461C204.446 229.055 198.464 223.051 191.084 223.051C183.705 223.051 177.722 229.055 177.722 236.461C177.722 243.866 183.705 249.87 191.084 249.87Z" fill="#FEBB9F"/>
<path d="M256.372 376.331H245.4V398.135H237.904V376.331H222.805V398.135H215.309V376.331H200.209V398.135H192.714V376.331C192.714 376.331 175.006 382 174.355 405.875V410.127C175.006 434.002 192.714 439.671 192.714 439.671V417.867H200.209V438.253V439.671H215.309V438.253V417.867H222.805V438.253V439.671H237.904V438.253V417.867H245.4V438.253V439.671H256.372V417.867H260.5V415.796V413.724V412.307V402.495V400.424V398.353H256.372V376.331Z" fill="#FEBB9F"/>
<path d="M260.5 456.787C260.5 456.787 207.705 459.621 179.243 441.306C179.243 441.306 183.48 514.457 260.5 517.292C337.52 514.457 341.757 441.306 341.757 441.306C313.295 459.512 260.5 456.787 260.5 456.787Z" fill="#FEBB9F"/>
<path d="M397.377 103.349H260.5H123.623C118.192 103.349 113.847 107.71 113.847 113.161C113.847 116.759 116.78 119.702 120.364 119.702H260.5H400.636C404.22 119.702 407.154 116.759 407.154 113.161C407.154 107.71 402.7 103.349 397.377 103.349Z" fill="#FEBB9F"/>
<path d="M373.477 77.0759H260.609H260.283H147.414C141.982 77.0759 137.637 81.4367 137.637 86.8876C137.637 90.4852 140.57 93.4287 144.155 93.4287H260.283H260.609H376.736C380.321 93.4287 383.254 90.4852 383.254 86.8876C383.363 81.4367 378.909 77.0759 373.477 77.0759Z" fill="#FEBB9F"/>
<path d="M280.814 0H260.5H240.186C234.754 0 230.409 4.36073 230.409 9.81165C230.409 13.4092 233.342 16.3527 236.927 16.3527H260.5H284.073C287.658 16.3527 290.591 13.4092 290.591 9.81165C290.591 4.36073 286.246 0 280.814 0Z" fill="#FEBB9F"/>
<path d="M315.577 22.4578H260.609H260.283H205.315C199.883 22.4578 195.538 26.8185 195.538 32.2694C195.538 35.867 198.471 38.8105 202.056 38.8105H260.283H260.609H318.836C322.42 38.8105 325.353 35.867 325.353 32.2694C325.353 26.8185 321.008 22.4578 315.577 22.4578Z" fill="#FEBB9F"/>
<path d="M351.534 47.0958H260.609H260.283H169.358C163.926 47.0958 159.581 51.4566 159.581 56.9075C159.581 60.5051 162.514 63.4486 166.099 63.4486H260.283H260.609H354.793C358.378 63.4486 361.311 60.5051 361.311 56.9075C361.311 51.4566 356.965 47.0958 351.534 47.0958Z" fill="#FEBB9F"/>
<path d="M151.216 508.352C160.755 508.352 168.489 500.591 168.489 491.018C168.489 481.445 160.755 473.684 151.216 473.684C141.677 473.684 133.943 481.445 133.943 491.018C133.943 500.591 141.677 508.352 151.216 508.352Z" fill="#FEBB9F"/>
<path d="M185.761 549.125C195.3 549.125 203.034 541.364 203.034 531.791C203.034 522.218 195.3 514.457 185.761 514.457C176.222 514.457 168.489 522.218 168.489 531.791C168.489 541.364 176.222 549.125 185.761 549.125Z" fill="#FEBB9F"/>
<path d="M234.646 573C244.185 573 251.918 565.239 251.918 555.666C251.918 546.093 244.185 538.332 234.646 538.332C225.106 538.332 217.373 546.093 217.373 555.666C217.373 565.239 225.106 573 234.646 573Z" fill="#FEBB9F"/>
<path d="M328.286 376.331V398.135H320.682V376.331H305.582V398.135H298.087V376.331H282.987V398.135H275.491V376.331H264.193V398.135H260.391V400.206V402.277V412.089V413.506V415.578V417.649H264.193V439.453H275.491V438.035V417.649H282.987V438.035V439.453H298.087V438.035V417.649H305.582V438.035V439.453H320.682V438.035V417.649H328.178V439.453C328.178 439.453 345.885 433.784 346.537 409.909V405.657C345.993 382 328.286 376.331 328.286 376.331Z" fill="#FEBB9F"/>
<path d="M517.524 217.928C511.983 202.665 497.753 188.275 483.63 180.534C455.712 165.381 429.314 178.136 409.652 199.831V131.585H260.5H111.239V199.831C91.5769 178.136 65.1793 165.381 37.2608 180.534C23.1387 188.166 8.90784 202.665 3.3676 217.928C-8.03878 249.652 9.99416 292.387 44.6478 299.364C68.1124 304.052 102.875 290.098 110.262 265.35C114.607 250.742 107.655 233.735 96.0309 224.36C85.3849 215.856 63.1153 213.022 52.0348 222.179C40.8457 231.555 41.063 248.998 41.063 248.998C41.1716 259.354 51.6003 269.929 62.029 269.275C71.5886 268.73 80.931 260.663 80.931 250.742C80.931 244.31 75.7166 239.186 69.416 239.186C63.0067 239.186 57.901 244.419 57.901 250.742C57.901 255.866 61.1599 260.118 65.7225 261.753C50.1881 261.208 50.1881 247.581 50.1881 247.581C51.6003 222.942 69.8505 229.265 69.8505 229.265C97.2258 227.848 92.9892 255.321 92.9892 255.321C90.1647 286.282 58.6614 283.775 58.6614 283.775C43.127 283.775 26.1804 276.906 23.2473 260.118C21.0746 247.362 25.5286 233.081 32.481 222.506C43.8874 205.172 61.4858 203.864 61.4858 203.864C126.665 204.518 127.317 258.046 127.317 258.046C125.905 300.236 81.0396 304.488 81.0396 304.488C81.0396 304.488 162.296 394.428 162.296 394.537C160.993 393.12 169.792 383.744 170.878 382.763C174.789 379.057 179.352 376.222 184.023 373.715C194.886 368.155 206.184 365.647 218.133 363.903C244.966 359.978 272.341 358.234 299.173 362.813C321.986 366.737 343.278 376.549 358.378 394.537L439.634 304.488C439.634 304.488 394.769 300.236 393.357 258.046C393.357 258.046 394.009 204.627 459.188 203.864C459.188 203.864 476.787 205.172 488.193 222.506C495.146 232.972 499.599 247.362 497.427 260.118C494.494 276.906 477.547 283.775 462.013 283.775C462.013 283.775 430.509 286.282 427.685 255.321C427.685 255.321 423.448 227.848 450.824 229.265C450.824 229.265 469.074 222.942 470.486 247.581C470.486 247.581 470.486 261.099 454.952 261.753C459.514 260.227 462.773 255.866 462.773 250.742C462.773 244.31 457.559 239.186 451.258 239.186C444.849 239.186 439.743 244.419 439.743 250.742C439.743 260.663 449.194 268.73 458.645 269.275C469.074 269.82 479.502 259.354 479.611 248.998C479.611 248.998 479.937 231.555 468.639 222.179C457.559 212.913 435.181 215.856 424.643 224.36C413.02 233.626 406.067 250.633 410.412 265.35C417.799 289.989 452.67 304.052 476.026 299.364C511.006 292.496 529.039 249.652 517.524 217.928ZM191.084 261.753C177.179 261.753 165.881 250.415 165.881 236.461C165.881 222.506 177.179 211.168 191.084 211.168C204.989 211.168 216.287 222.506 216.287 236.461C216.287 250.415 204.989 261.753 191.084 261.753ZM231.93 348.968L260.5 225.232L288.527 348.968H231.93ZM329.807 261.753C315.902 261.753 304.605 250.415 304.605 236.461C304.605 222.506 315.902 211.168 329.807 211.168C343.712 211.168 355.01 222.506 355.01 236.461C355.01 250.415 343.712 261.753 329.807 261.753ZM393.574 202.665C336.108 136.6 260.5 211.059 260.5 211.059C260.5 211.059 184.783 136.491 127.426 202.665V166.144C127.426 166.144 177.831 120.465 260.5 171.813C343.169 120.465 393.574 166.144 393.574 166.144V202.665Z" fill="#FEBB9F"/>
</g>
<defs>
<clipPath id="clip0">
<rect width="521" height="573" fill="white"/>
</clipPath>
</defs>
</svg>

<?xml version="1.0" encoding="utf-8"?>
<!-- Generator: Adobe Illustrator 21.0.2, SVG Export Plug-In . SVG Version: 6.00 Build 0)  -->
<svg version="1.1" id="face-tribal-vector" xmlns="http://www.w3.org/2000/svg" xmlns:xlink="http://www.w3.org/1999/xlink" x="0px"
	 y="0px" viewBox="0 0 521 573" style="enable-background:new 0 0 521 573;" xml:space="preserve">
<path id="eyeright" d="M329.8,249.9c7.4,0,13.4-6,13.4-13.4c0-7.4-6-13.4-13.4-13.4c-7.4,0-13.4,6-13.4,13.4
	C316.4,243.9,322.4,249.9,329.8,249.9z"/>
<path id="circle6" d="M369.8,508.4c9.5,0,17.3-7.8,17.3-17.3s-7.7-17.3-17.3-17.3s-17.3,7.8-17.3,17.3S360.2,508.4,369.8,508.4z"/>
<path id="circle5" d="M335.2,549.1c9.5,0,17.3-7.8,17.3-17.3s-7.7-17.3-17.3-17.3s-17.3,7.8-17.3,17.3S325.7,549.1,335.2,549.1z"/>
<path id="circle4" d="M286.2,573c9.5,0,17.3-7.8,17.3-17.3s-7.7-17.3-17.3-17.3c-9.5,0-17.3,7.8-17.3,17.3S276.7,573,286.2,573z"/>
<path id="eyeleft" d="M191.1,249.9c7.4,0,13.4-6,13.4-13.4c0-7.4-6-13.4-13.4-13.4c-7.4,0-13.4,6-13.4,13.4
	C177.7,243.9,183.7,249.9,191.1,249.9z"/>
<path id="neck" d="M260.5,456.8c0,0-52.8,2.8-81.3-15.5c0,0,4.2,73.2,81.3,76c77-2.8,81.3-76,81.3-76
	C313.3,459.5,260.5,456.8,260.5,456.8z"/>
<path id="headline5" d="M397.4,103.3H260.5H123.6c-5.4,0-9.8,4.4-9.8,9.8c0,3.6,2.9,6.5,6.5,6.5h140.1h140.1c3.6,0,6.5-2.9,6.5-6.5
	C407.2,107.7,402.7,103.3,397.4,103.3z"/>
<path id="headline4" d="M373.5,77.1H260.6h-0.3H147.4c-5.4,0-9.8,4.4-9.8,9.8c0,3.6,2.9,6.5,6.5,6.5h116.1h0.3h116.1
	c3.6,0,6.5-2.9,6.5-6.5C383.4,81.4,378.9,77.1,373.5,77.1z"/>
<path id="headline1" d="M280.8,0h-20.3h-20.3c-5.4,0-9.8,4.4-9.8,9.8c0,3.6,2.9,6.5,6.5,6.5h23.6h23.6c3.6,0,6.5-2.9,6.5-6.5
	C290.6,4.4,286.2,0,280.8,0z"/>
<path id="headline2" d="M315.6,22.5h-55h-0.3h-55c-5.4,0-9.8,4.4-9.8,9.8c0,3.6,2.9,6.5,6.5,6.5h58.2h0.3h58.2
	c3.6,0,6.5-2.9,6.5-6.5C325.4,26.8,321,22.5,315.6,22.5z"/>
<path id="headline3" d="M351.5,47.1h-90.9h-0.3h-90.9c-5.4,0-9.8,4.4-9.8,9.8c0,3.6,2.9,6.5,6.5,6.5h94.2h0.3h94.2
	c3.6,0,6.5-2.9,6.5-6.5C361.3,51.5,357,47.1,351.5,47.1z"/>
<path id="circle1" d="M151.2,508.4c9.5,0,17.3-7.8,17.3-17.3s-7.7-17.3-17.3-17.3s-17.3,7.8-17.3,17.3S141.7,508.4,151.2,508.4z"/>
<path id="circle2" d="M185.8,549.1c9.5,0,17.3-7.8,17.3-17.3s-7.7-17.3-17.3-17.3s-17.3,7.8-17.3,17.3S176.2,549.1,185.8,549.1z"/>
<path id="circle3" d="M234.6,573c9.5,0,17.3-7.8,17.3-17.3s-7.7-17.3-17.3-17.3c-9.5,0-17.3,7.8-17.3,17.3S225.1,573,234.6,573z"/>
<path id="mouth" d="M328.3,376.3v21.8h-7.6v-21.8h-15.1v21.8h-7.5v-21.8H283v21.8h-7.5v-21.8h-11.3v21.8h-3.8v0.2h-4v-22h-11v21.8
	h-7.5v-21.8h-15.1v21.8h-7.5v-21.8h-15.1v21.8h-7.5v-21.8c0,0-17.7,5.7-18.4,29.5v4.3c0.7,23.9,18.4,29.5,18.4,29.5v-21.8h7.5v20.4
	v1.4h15.1v-1.4v-20.4h7.5v20.4v1.4h15.1v-1.4v-20.4h7.5v20.4v1.4h11v-21.8h4.1v-0.2h3.7v21.8h11.3V438v-20.4h7.5V438v1.4h15.1V438
	v-20.4h7.5V438v1.4h15.1V438v-20.4h7.5v21.8c0,0,17.7-5.7,18.4-29.5v-4.3C346,382,328.3,376.3,328.3,376.3z"/>
<path id="face" d="M517.5,217.9c-5.5-15.3-19.8-29.7-33.9-37.4c-27.9-15.2-54.3-2.4-74,19.3v-68.2H260.5H111.2v68.2
	c-19.7-21.7-46.1-34.4-74-19.3c-14.1,7.6-28.4,22.1-33.9,37.4C-8,249.7,10,292.4,44.6,299.4c23.5,4.7,58.2-9.3,65.6-34
	c4.3-14.6-2.6-31.6-14.2-41c-10.6-8.5-32.9-11.3-44-2.2c-11.2,9.4-11,26.8-11,26.8c0.1,10.4,10.5,20.9,21,20.3
	c9.6-0.5,18.9-8.6,18.9-18.5c0-6.4-5.2-11.6-11.5-11.6c-6.4,0-11.5,5.2-11.5,11.6c0,5.1,3.3,9.4,7.8,11
	c-15.5-0.5-15.5-14.2-15.5-14.2c1.4-24.6,19.7-18.3,19.7-18.3c27.4-1.4,23.1,26.1,23.1,26.1c-2.8,31-34.3,28.5-34.3,28.5
	c-15.5,0-32.5-6.9-35.4-23.7c-2.2-12.8,2.3-27,9.2-37.6c11.4-17.3,29-18.6,29-18.6c65.2,0.7,65.8,54.2,65.8,54.2
	c-1.4,42.2-46.3,46.4-46.3,46.4s81.3,89.9,81.3,90c-1.3-1.4,7.5-10.8,8.6-11.8c3.9-3.7,8.5-6.5,13.1-9c10.9-5.6,22.2-8.1,34.1-9.8
	c26.8-3.9,54.2-5.7,81-1.1c22.8,3.9,44.1,13.7,59.2,31.7l81.3-90c0,0-44.9-4.3-46.3-46.4c0,0,0.7-53.4,65.8-54.2
	c0,0,17.6,1.3,29,18.6c7,10.5,11.4,24.9,9.2,37.6c-2.9,16.8-19.9,23.7-35.4,23.7c0,0-31.5,2.5-34.3-28.5c0,0-4.2-27.5,23.1-26.1
	c0,0,18.2-6.3,19.7,18.3c0,0,0,13.5-15.5,14.2c4.6-1.5,7.8-5.9,7.8-11c0-6.4-5.2-11.6-11.5-11.6c-6.4,0-11.5,5.2-11.5,11.6
	c0,9.9,9.5,18,18.9,18.5c10.4,0.5,20.9-9.9,21-20.3c0,0,0.3-17.4-11-26.8c-11.1-9.3-33.5-6.3-44,2.2c-11.6,9.3-18.6,26.3-14.2,41
	c7.4,24.6,42.3,38.7,65.6,34C511,292.5,529,249.7,517.5,217.9z M191.1,261.8c-13.9,0-25.2-11.3-25.2-25.3c0-14,11.3-25.3,25.2-25.3
	s25.2,11.3,25.2,25.3C216.3,250.4,205,261.8,191.1,261.8z M231.9,349l28.6-123.7l28,123.7H231.9z M329.8,261.8
	c-13.9,0-25.2-11.3-25.2-25.3c0-14,11.3-25.3,25.2-25.3s25.2,11.3,25.2,25.3C355,250.4,343.7,261.8,329.8,261.8z M393.6,202.7
	c-57.5-66.1-133.1,8.4-133.1,8.4s-75.7-74.6-133.1-8.4v-36.5c0,0,50.4-45.7,133.1,5.7c82.7-51.3,133.1-5.7,133.1-5.7V202.7z"/>
</svg>
